svgs/sharp-regular/id-badge.svg

<svg xmlns="http://www.w3.org/2000/svg" viewBox="0 0 384 512"><!--! Font Awesome Pro 6.6.0 by @fontawesome - https://fontawesome.com License - https://fontawesome.com/license (Commercial License) Copyright 2024 Fonticons, Inc. --><path d="M128 48l0 48 128 0 0-48 80 0 0 416L48 464 48 48l80 0zM48 0L0 0 0 48 0 464l0 48 48 0 288 0 48 0 0-48 0-416 0-48L336 0 48 0zM192 288a64 64 0 1 0 0-128 64 64 0 1 0 0 128zM80 416l224 0-32-96-160 0L80 416z"/></svg>

<svg xmlns="http://www.w3.org/2000/svg" viewBox="0 0 384 512"><!--! Font Awesome Pro 6.4.0 by @fontawesome - https://fontawesome.com License - https://fontawesome.com/license (Commercial License) Copyright 2023 Fonticons, Inc. --><path d="M128 48V96H256V48h80V464H48V48h80zM48 0H0V48 464v48H48 336h48V464 48 0H336 48zM192 288a64 64 0 1 0 0-128 64 64 0 1 0 0 128zM80 416H304l-32-96H112L80 416z"/></svg>
